build/fonts/cisco/atmtagswitchrouter.svg

<?xml version="1.0" encoding="UTF-8" standalone="no"?>
<svg
   xmlns:dc="http://purl.org/dc/elements/1.1/"
   xmlns:cc="http://creativecommons.org/ns#"
   xmlns:rdf="http://www.w3.org/1999/02/22-rdf-syntax-ns#"
   xmlns:svg="http://www.w3.org/2000/svg"
   xmlns="http://www.w3.org/2000/svg"
   viewBox="0 0 38.75 51.25"
   height="51.25"
   width="38.75"
   xml:space="preserve"
   version="1.1"
   id="svg2"><metadata
     id="metadata8"><rdf:RDF><cc:Work
         rdf:about=""><dc:format>image/svg+xml</dc:format><dc:type
           rdf:resource="http://purl.org/dc/dcmitype/StillImage" /></cc:Work></rdf:RDF></metadata><defs
     id="defs6"><clipPath
       id="clipPath18"
       clipPathUnits="userSpaceOnUse"><path
         id="path20"
         d="M 0,9 0,406 310,406 310,9 0,9 Z" /></clipPath></defs><g
     transform="matrix(1.25,0,0,-1.25,0,51.25)"
     id="g10"><g
       transform="scale(0.1,0.1)"
       id="g12"><g
         id="g14"><g
           clip-path="url(#clipPath18)"
           id="g16"><path
             id="path22"
             style="fill:#087bbb;fill-opacity:1;fill-rule:nonzero;stroke:none"
             d="m 6.44922,14.7852 268.281,0 0,244.262 -268.281,0 0,-244.262 z" /><path
             id="path24"
             style="fill:none;stroke:#ffffff;stroke-width:3.99993992;stroke-linecap:butt;stroke-linejoin:miter;stroke-miterlimit:4;stroke-dasharray:none;stroke-opacity:1"
             d="m 6.44922,14.7852 268.281,0 0,244.262 -268.281,0 0,-244.262 z" /><path
             id="path26"
             style="fill:#087bbb;fill-opacity:1;fill-rule:nonzero;stroke:none"
             d="m 308.59,48.3359 0,244.2621 -33.86,-33.551 0,-244.2618 33.86,33.5507" /><path
             id="path28"
             style="fill:none;stroke:#ffffff;stroke-width:3.99993992;stroke-linecap:butt;stroke-linejoin:miter;stroke-miterlimit:4;stroke-dasharray:none;stroke-opacity:1"
             d="m 308.59,48.3359 0,244.2621 -33.86,-33.551 0,-244.2618 33.86,33.5507 z" /><path
             id="path30"
             style="fill:#087bbb;fill-opacity:1;fill-rule:nonzero;stroke:none"
             d="m 55.5117,401.266 -49.06248,-33.547 268.28078,0 33.86,33.547 -253.0783,0" /><path
             id="path32"
             style="fill:none;stroke:#ffffff;stroke-width:3.99993992;stroke-linecap:butt;stroke-linejoin:miter;stroke-miterlimit:4;stroke-dasharray:none;stroke-opacity:1"
             d="m 55.5117,401.266 -49.06248,-33.547 268.28078,0 33.86,33.547 -253.0783,0 z" /><path
             id="path34"
             style="fill:#087bbb;fill-opacity:1;fill-rule:nonzero;stroke:none"
             d="m 6.44922,259.047 268.281,0 0,108.672 -268.281,0 0,-108.672 z" /><path
             id="path36"
             style="fill:none;stroke:#ffffff;stroke-width:3.99993992;stroke-linecap:butt;stroke-linejoin:miter;stroke-miterlimit:4;stroke-dasharray:none;stroke-opacity:1"
             d="m 6.44922,259.047 268.281,0 0,108.672 -268.281,0 0,-108.672 z" /><path
             id="path38"
             style="fill:#087bbb;fill-opacity:1;fill-rule:nonzero;stroke:none"
             d="m 308.59,292.598 0,108.668 -33.86,-33.547 0,-108.672 33.86,33.551" /><path
             id="path40"
             style="fill:none;stroke:#ffffff;stroke-width:3.99993992;stroke-linecap:butt;stroke-linejoin:miter;stroke-miterlimit:4;stroke-dasharray:none;stroke-opacity:1"
             d="m 308.59,292.598 0,108.668 -33.86,-33.547 0,-108.672 33.86,33.551 z" /><path
             id="path42"
             style="fill:none;stroke:#ffffff;stroke-width:3.99993992;stroke-linecap:butt;stroke-linejoin:miter;stroke-miterlimit:4;stroke-dasharray:none;stroke-opacity:1"
             d="m 274.73,259.047 -268.28078,0" /><path
             id="path44"
             style="fill:#231f20;fill-opacity:1;fill-rule:nonzero;stroke:none"
             d="m 274.73,259.047 33.86,33.551" /><path
             id="path46"
             style="fill:none;stroke:#ffffff;stroke-width:3.99993992;stroke-linecap:butt;stroke-linejoin:miter;stroke-miterlimit:4;stroke-dasharray:none;stroke-opacity:1"
             d="m 274.73,259.047 33.86,33.551" /><path
             id="path48"
             style="fill:#231f20;fill-opacity:1;fill-rule:nonzero;stroke:none"
             d="m 56.0508,336.387 43.2383,0 0,22.5 -43.2383,0 0,-22.5 z" /><path
             id="path50"
             style="fill:#231f20;fill-opacity:1;fill-rule:nonzero;stroke:none"
             d="m 198.199,336.387 43.2813,0 0,22.5 -43.2813,0 0,-22.5 z" /><path
             id="path52"
             style="fill:#231f20;fill-opacity:1;fill-rule:nonzero;stroke:none"
             d="m 56.0508,280.098 43.2383,0 0,22.5 -43.2383,0 0,-22.5 z" /><path
             id="path54"
             style="fill:#231f20;fill-opacity:1;fill-rule:nonzero;stroke:none"
             d="m 198.199,280.098 43.2813,0 0,22.5 -43.2813,0 0,-22.5 z" /><path
             id="path56"
             style="fill:none;stroke:#231f20;stroke-width:3.99993992;stroke-linecap:butt;stroke-linejoin:miter;stroke-miterlimit:4;stroke-dasharray:none;stroke-opacity:1"
             d="m 85.3906,345.488 132.8904,0" /><path
             id="path58"
             style="fill:none;stroke:#231f20;stroke-width:3.99993992;stroke-linecap:butt;stroke-linejoin:miter;stroke-miterlimit:4;stroke-dasharray:none;stroke-opacity:1"
             d="m 85.3906,289.156 132.8904,0" /><path
             id="path60"
             style="fill:none;stroke:#231f20;stroke-width:3.99993992;stroke-linecap:butt;stroke-linejoin:miter;stroke-miterlimit:4;stroke-dasharray:none;stroke-opacity:1"
             d="M 77.6992,289.156 218.281,345.488" /><path
             id="path62"
             style="fill:none;stroke:#231f20;stroke-width:3.99993992;stroke-linecap:butt;stroke-linejoin:miter;stroke-miterlimit:4;stroke-dasharray:none;stroke-opacity:1"
             d="M 77.6992,345.488 218.281,289.156" /><path
             id="path64"
             style="fill:#ffffff;fill-opacity:1;fill-rule:nonzero;stroke:none"
             d="m 50.2305,330.605 43.2813,0 0,22.5 -43.2813,0 0,-22.5 z" /><path
             id="path66"
             style="fill:#ffffff;fill-opacity:1;fill-rule:nonzero;stroke:none"
             d="m 192.379,330.605 43.2813,0 0,22.5 -43.2813,0 0,-22.5 z" /><path
             id="path68"
             style="fill:#ffffff;fill-opacity:1;fill-rule:nonzero;stroke:none"
             d="m 50.2305,274.277 43.2813,0 0,22.5391 -43.2813,0 0,-22.5391 z" /><path
             id="path70"
             style="fill:#ffffff;fill-opacity:1;fill-rule:nonzero;stroke:none"
             d="m 192.379,274.277 43.2813,0 0,22.5391 -43.2813,0 0,-22.5391 z" /><path
             id="path72"
             style="fill:none;stroke:#ffffff;stroke-width:3.99993992;stroke-linecap:butt;stroke-linejoin:miter;stroke-miterlimit:4;stroke-dasharray:none;stroke-opacity:1"
             d="m 79.5703,341.855 132.8907,0" /><path
             id="path74"
             style="fill:none;stroke:#ffffff;stroke-width:3.99993992;stroke-linecap:butt;stroke-linejoin:miter;stroke-miterlimit:4;stroke-dasharray:none;stroke-opacity:1"
             d="m 79.5703,285.566 132.8907,0" /><path
             id="path76"
             style="fill:none;stroke:#ffffff;stroke-width:3.99993992;stroke-linecap:butt;stroke-linejoin:miter;stroke-miterlimit:4;stroke-dasharray:none;stroke-opacity:1"
             d="M 71.8789,285.566 212.461,341.855" /><path
             id="path78"
             style="fill:none;stroke:#ffffff;stroke-width:3.99993992;stroke-linecap:butt;stroke-linejoin:miter;stroke-miterlimit:4;stroke-dasharray:none;stroke-opacity:1"
             d="M 71.8789,341.855 212.461,285.566" /><path
             id="path80"
             style="fill:none;stroke:#231f20;stroke-width:14.25;stroke-linecap:butt;stroke-linejoin:miter;stroke-miterlimit:4;stroke-dasharray:none;stroke-opacity:1"
             d="m 69.5703,75.5664 47.8907,0 66.09,135.1606 45.668,0" /><path
             id="path82"
             style="fill:#231f20;fill-opacity:1;fill-rule:nonzero;stroke:none"
             d="m 215.859,234.945 0,-47.968 28.871,23.039 -28.871,24.929" /><path
             id="path84"
             style="fill:#231f20;fill-opacity:1;fill-rule:nonzero;stroke:none"
             d="m 77.8086,50.875 0,47.9336 L 48.9492,75.7969 77.8086,50.875" /><path
             id="path86"
             style="fill:#ffffff;fill-opacity:1;fill-rule:nonzero;stroke:none"
             d="m 71.25,46.3477 0,47.9296 L 42.3398,71.2656 71.25,46.3477" /><path
             id="path88"
             style="fill:#ffffff;fill-opacity:1;fill-rule:nonzero;stroke:none"
             d="m 210.469,231.035 0,-47.969 28.941,23.051 -28.941,24.918" /><path
             id="path90"
             style="fill:#231f20;fill-opacity:1;fill-rule:nonzero;stroke:none"
             d="m 77.8086,185.875 0,47.934 -28.8594,-23.012 28.8594,-24.922" /><path
             id="path92"
             style="fill:#ffffff;fill-opacity:1;fill-rule:nonzero;stroke:none"
             d="m 71.25,181.348 0,47.929 L 42.3398,206.266 71.25,181.348" /><path
             id="path94"
             style="fill:none;stroke:#231f20;stroke-width:14.25;stroke-linecap:butt;stroke-linejoin:miter;stroke-miterlimit:4;stroke-dasharray:none;stroke-opacity:1"
             d="m 230.199,75.0586 -47.109,0 -67.309,135.7774 -40.1208,0" /><path
             id="path96"
             style="fill:none;stroke:#ffffff;stroke-width:14.25;stroke-linecap:butt;stroke-linejoin:miter;stroke-miterlimit:4;stroke-dasharray:none;stroke-opacity:1"
             d="m 229.059,70.7969 -49.61,0 -67.301,135.8201 -51.3667,0" /><path
             id="path98"
             style="fill:none;stroke:#ffffff;stroke-width:14.25;stroke-linecap:butt;stroke-linejoin:miter;stroke-miterlimit:4;stroke-dasharray:none;stroke-opacity:1"
             d="m 61.0898,71.0352 47.9302,0 66.679,135.1598 51.961,0" /><path
             id="path100"
             style="fill:#231f20;fill-opacity:1;fill-rule:nonzero;stroke:none"
             d="m 215.859,99.3164 0,-47.9687 28.871,23.0507 -28.871,24.918" /><path
             id="path102"
             style="fill:#ffffff;fill-opacity:1;fill-rule:nonzero;stroke:none"
             d="m 210.469,95.4063 0,-47.961 28.941,23.043 -28.941,24.918" /></g></g></g></g></svg>

<svg xmlns="http://www.w3.org/2000/svg" viewBox="0 0 38.75 51.25" height="51.25" width="38.75"><defs><clipPath id="a"><path d="M0 9v397h310V9H0z"/></clipPath></defs><g clip-path="url(#a)" transform="matrix(.13 0 0 -.13 0 51.25)"><path d="M6.45 14.785h268.28v244.262H6.45V14.785z" fill="#087bbb"/><path d="M6.45 14.785h268.28v244.262H6.45V14.785z" fill="none" stroke="#fff" stroke-width="4"/><path d="M308.59 48.336v244.262l-33.86-33.551V14.785l33.86 33.55" fill="#087bbb"/><path d="M308.59 48.336v244.262l-33.86-33.551V14.785l33.86 33.55z" fill="none" stroke="#fff" stroke-width="4"/><path d="M55.512 401.266L6.449 367.719H274.73l33.86 33.547H55.512" fill="#087bbb"/><path d="M55.512 401.266L6.449 367.719H274.73l33.86 33.547H55.512z" fill="none" stroke="#fff" stroke-width="4"/><path d="M6.45 259.047h268.28v108.672H6.45V259.047z" fill="#087bbb"/><path d="M6.45 259.047h268.28v108.672H6.45V259.047z" fill="none" stroke="#fff" stroke-width="4"/><path d="M308.59 292.598v108.668l-33.86-33.547V259.047l33.86 33.551" fill="#087bbb"/><path d="M308.59 292.598v108.668l-33.86-33.547V259.047l33.86 33.551zM274.73 259.047H6.45" fill="none" stroke="#fff" stroke-width="4"/><path d="M274.73 259.047l33.86 33.551" fill="#231f20"/><path d="M274.73 259.047l33.86 33.551" fill="none" stroke="#fff" stroke-width="4"/><path d="M56.05 336.387h43.24v22.5H56.05v-22.5zM198.199 336.387h43.281v22.5H198.2v-22.5zM56.05 280.098h43.24v22.5H56.05v-22.5zM198.199 280.098h43.281v22.5H198.2v-22.5z" fill="#231f20"/><path d="M85.39 345.488h132.891M85.39 289.156h132.891M77.7 289.156l140.581 56.332M77.7 345.488l140.581-56.332" fill="none" stroke="#231f20" stroke-width="4"/><path d="M50.23 330.605h43.282v22.5H50.23v-22.5zM192.379 330.605h43.281v22.5H192.38v-22.5zM50.23 274.277h43.282v22.54H50.23v-22.54zM192.379 274.277h43.281v22.54H192.38v-22.54z" fill="#fff"/><path d="M79.57 341.855h132.891M79.57 285.566h132.891M71.879 285.566l140.582 56.289M71.879 341.855l140.582-56.289" fill="none" stroke="#fff" stroke-width="4"/><path d="M69.57 75.566h47.891l66.09 135.161h45.668" fill="none" stroke="#231f20" stroke-width="14.25"/><path d="M215.859 234.945v-47.968l28.871 23.039-28.871 24.929M77.809 50.875v47.934l-28.86-23.012 28.86-24.922" fill="#231f20"/><path d="M71.25 46.348v47.93L42.34 71.265l28.91-24.918M210.469 231.035v-47.969l28.941 23.051-28.941 24.918" fill="#fff"/><path d="M77.809 185.875v47.934l-28.86-23.012 28.86-24.922" fill="#231f20"/><path d="M71.25 181.348v47.929l-28.91-23.011 28.91-24.918" fill="#fff"/><path d="M230.199 75.059H183.09l-67.309 135.777h-40.12" fill="none" stroke="#231f20" stroke-width="14.25"/><path d="M229.059 70.797h-49.61l-67.301 135.82H60.781" fill="none" stroke="#fff" stroke-width="14.25"/><path d="M61.09 71.035h47.93l66.679 135.16h51.961" fill="none" stroke="#fff" stroke-width="14.25"/><path d="M215.859 99.316V51.348l28.871 23.05-28.871 24.918" fill="#231f20"/><path d="M210.469 95.406v-47.96l28.941 23.042-28.941 24.918" fill="#fff"/></g></svg>
